X: 132
T: The Caledonian Hunt's Delight.     Irish
%R: jig
B: Urbani & Liston "A Selection of Scotch, English Irish, and Foreign Airs", Edinburgh 1800, p.52 #1
F: http://www.vwml.org/browse/browse-collections-dance-tune-books/browse-urbani1800
Z: 2014 John Chambers <jc:trillian.mit.edu>
M: 6/8
L: 1/8
K: G
D |\
G3 TA3 | B>cB TAGA | B>AG GED | D>EG A>cB/A/ |\
G3 TA3 | B>cB TAGA | BAG GED | DEG G2 :|
|: B/c/ |\
d2e dcB | d2e dBG | dBG dBG | e>dB A>cB/A/ |\
G3 TA3 | B>cB TAGA | BAG GED | DEG G2 :|

%%sep 1 1 500
%%sep 1 1 500
